X: 1
T: Danny Meehan's
M: 4/4
L: 1/8
R: reel
K: Dmaj
D2FA d2(3ABc|defg ecAc|d2(3Bcd BGED|CEAG FDEF|
DF~F2 D2(3ABc|defg ecAc|d2(3Bcd BGED|1CEAG FDEF:|2CEAG FDD2||
|:defd gefd|gabg ecAc|def/e/d gefd|gabg ~f3e|
defd gefd|gabg ecAc|d2(3Bcd BGED|1CEAG FDDc:|2CEAG FDEF||
